X:175
T:RVW2/2/175 The Drums Do Beat
C:Mr. Baker (Snr.) Forest Green, Surrey, 21 December 1904
L:1/4
Q:1/4=130
M:4/4
I:linebreak $
K:G
"^(Editorial suggestion)  " D | G3/2 A/ B"^(a)" c/c/ | (d B) e c | A G G G | G3 d/d/ |$ (e d) e f | 
w: The|drums do beat in the|ar- * my and|the loud can- nons|roar and a-|dieu _ to old|
g2 (e/f/) g | a3/2 g/ f e | d3 d |$ e d e f |"^(b)" g3/2 g/ g g/f/ |"^(c)" e/e/ d (B/A/) G | 
w: Eng- land _ a-|dieu for e- ver|more King|George he has com-|man- ded us and his|or- ders we must * o-|
A2 (G3/2 A/) |$ B g f g | (e d) e c | B G A3/2 G/ | G2 z ||$ D | G3/2 A/ B"^(a) var." c | 
w: bey to _|go and face the|re- * bels in|North A- me- ri-|kay.|||
d B e c | A G G G | G3 d/d/ |$ e d e f | g2 e/f/ g | a3/2 g/ f e | d3 d |$ e d e f | 
w: ||||||||
"^(b) var." g g2 g/f/ |"^(c) var." e/e/ d B/A/ G | A2 G3/2 A/ |$ B g f g | e d e c | B G A3/2 G/ | 
w: ||||||
G2 z |] 
w: |



